X: 42865
T: Wild One, The
R: jig
M: 6/8
K: Dminor
DE FD GD|ADc AGF|DE FD GD|ADF EDC
DE FD GD|ADc AGF|dcA GAF|EDC D2 A,:|
d2 c A2 c|dcA cdc|d2 c A2 G|FGE FED
d2 c A2 c|dcA cdc|dcA cdF|EDC D3:|

